X:101
T:Miss Maybey's. EHo.101
M:3/4
L:1/8
Q:1/4=110
S:Edward Holmes MS, East Riding Archives, Beverley DDX114/21
R:Minuet
Z:Village Music Project. R.Greig 2016
K:D
"_f"A2 GFED|d4D2|E2F2G2|GFEFD2|
G2G2F2|B2B2A2|AGBAGF|F2E2z2|
"_f"FG/A/ GFED|d4D2|E2F2G2|G2F2A2|
dcBAGF|B2A2z2 & D4|(3Bcd F2"^tr"E2|{E2}D6:|
|:afedcd|e2dcBA|^GABcdc|c2B2z2|
c2c2B2|d2d2c2|e2fef2|ecdBcA & e6|
f2^g2af & A6|ecdB ca|(3efd c2"^tr"B2|A3(3BAG|
"_p".F2(F2E2) & A,6|.G2(G2F2) &A,6|AFBGAB|A2G2F2|
"_f"B2B2A2 & D6|B/A/B/c/ dgfe|(ab)d2"^tr"c2|{c2}d6:|

